svg/shield_lock.svg

<svg xmlns="http://www.w3.org/2000/svg" viewBox="0 0 24 24"><path d="M12 1 3 5v6c0 5.55 3.84 10.74 9 12 5.16-1.26 9-6.45 9-12V5zm0 6c1.4 0 2.8 1.1 2.8 2.5V11c.6 0 1.2.6 1.2 1.3v3.5c0 .6-.6 1.2-1.3 1.2H9.2c-.6 0-1.2-.6-1.2-1.3v-3.5c0-.6.6-1.2 1.2-1.2V9.5C9.2 8.1 10.6 7 12 7m0 1.2c-.8 0-1.5.5-1.5 1.3V11h3V9.5c0-.8-.7-1.3-1.5-1.3"/></svg>

<?xml version="1.0" encoding="UTF-8"?><!DOCTYPE svg PUBLIC "-//W3C//DTD SVG 1.1//EN" "http://www.w3.org/Graphics/SVG/1.1/DTD/svg11.dtd"><svg xmlns="http://www.w3.org/2000/svg" xmlns:xlink="http://www.w3.org/1999/xlink" version="1.1" id="mdi-shield-lock" width="24" height="24" viewBox="0 0 24 24"><path d="M12,1L3,5V11C3,16.55 6.84,21.74 12,23C17.16,21.74 21,16.55 21,11V5L12,1M12,7C13.4,7 14.8,8.1 14.8,9.5V11C15.4,11 16,11.6 16,12.3V15.8C16,16.4 15.4,17 14.7,17H9.2C8.6,17 8,16.4 8,15.7V12.2C8,11.6 8.6,11 9.2,11V9.5C9.2,8.1 10.6,7 12,7M12,8.2C11.2,8.2 10.5,8.7 10.5,9.5V11H13.5V9.5C13.5,8.7 12.8,8.2 12,8.2Z" /></svg>
